X:1
T:I Cried Out to God to Help Me
T:Tune: Genevan Psalter, 1551;  harm. Claude Goudimel, 1564 Text under copyright; for copyrighted material see Psalter Hymnal 77
T:88 77 D GENEVAN 77 www.hymnary.org//text/i_cried_out_to_god_to_help_me
T:I Cried Out to God to Help Me
T:This music is in the public domain. You may freely use this score for personal and congregational worship. If you reproduce the score, please credit Hymnary.org as the source. 
T:This music is in the public domain. You may freely use this score for personal and congregational worship. If you reproduce the score, please credit Hymnary.org as the source. 
Z:This music is in the public domain. You may freely use this score for personal and congregational worship. If you reproduce the score, please credit Hymnary.org as the source.
%%score ( 1 2 ) ( 3 4 )
L:1/8
M:12/4
K:Bb
V:1 treble nm="SOPRANO ALTO" snm="S. A."
V:2 treble 
V:3 bass nm="TENOR BASS" snm="T. B."
V:4 bass 
V:1
 G4 G4 F2 G2 A2 B2 A4 G4 | G4 G4 F2 G2 | A2 B2 A4 G4 | B4 A4 G2 B2 A2 G2 F8 | %4
 F4 =E4 D2 G2 G2 ^F2 G8 | B4 c4 d2 d2 c2 B2 |1 c4 B4 | B4 c4 d2 d2 c2 B2 c4 B4 | B4 A4 || %9
 G2 B2 A2 G2 F8 | F4 =E4 D2 G2 G2 ^F2 G8 |] %11
V:2
 D4 D4 D2 D2 F2 D2 D4 D4 | D4 D4 D2 D2 | F2 D2 D4 D4 | D4 F4 =E2 F2 F2 E2 D8 | %4
 D4 C4 A,2 G,2 _E2 D2 D8 | D4 F4 F2 F2 F2 D2 |1 F4 F4 | D4 F4 F2 F2 F2 D2 F4 F4 | F4 F4 || %9
 =E2 F2 F2 E2 D8 | D4 C4 A,2 G,2 _E2 D2 D8 |] %11
V:3
 G,4 B,4 A,2 B,2 A,2 G,4 ^F,2 G,4 | G,4 B,4 A,2 B,2 | A,2 G,4 ^F,2 G,4 | G,4 C4 C2 D2 C2 C2 A,8 | %4
 B,4 G,4 F,2 B,2 C2 A,2 G,8 | G,4 A,4 B,2 B,2 A,2 B,2- |1 B,2 A,2 B,4 | %7
 G,4 A,4 B,2 B,2 A,2 B,4 A,2 B,4 | D4 C4 || C2 D2 C2 C2 A,8 | B,4 G,4 F,2 B,2 C2 A,2 G,8 |] %11
V:4
 G,,4 G,4 D,2 G,2 F,2 G,2 D,4 G,,4 | G,,4 G,4 D,2 G,2 | F,2 G,2 D,4 G,,4 | %3
 G,4 F,4 C,2 B,,2 F,2 C,2 D,8 | B,,4 C,4 D,2 _E,2 C,2 D,2 G,,8 | G,4 F,4 B,,2 B,,2 F,2 G,2 |1 %6
 F,4 B,,4 | G,4 F,4 B,,2 B,,2 F,2 G,2 F,4 B,,4 | B,,4 F,4 || C,2 B,,2 F,2 C,2 D,8 | %10
 B,,4 C,4 D,2 _E,2 C,2 D,2 G,,8 |] %11

